www/assets/icons/video_file.svg

<svg xmlns="http://www.w3.org/2000/svg" width="24" height="24" viewBox="0 0 24 24" fill='currentColor'><path d="M14 2H6.01a2 2 0 0 0-2 2L4 20c0 1.1.9 2 2 2h12c1.1 0 2-.9 2-2V8zm-1 7V3.5L18.5 9zm1 5 2-1.06v4.12L14 16v1c0 .55-.45 1-1 1H9c-.55 0-1-.45-1-1v-4c0-.55.45-1 1-1h4c.55 0 1 .45 1 1z"/></svg>

<svg width="24" height="24" viewBox="0 0 24 24" xmlns="http://www.w3.org/2000/svg" fill='currentColor'><path d="M14 2H6.01C4.91 2 4.01 2.89 4.01 4L4 20C4 21.1 4.9 22 6 22H18C19.1 22 20 21.1 20 20V8L14 2ZM13 9V3.5L18.5 9H13ZM14 14L16 12.94V17.06L14 16V17C14 17.55 13.55 18 13 18H9C8.45 18 8 17.55 8 17V13C8 12.45 8.45 12 9 12H13C13.55 12 14 12.45 14 13V14Z"/></svg>
